X: 67
T:Changes of Bells. WCl.66
M:C
Q:70
S:Willam Clarke MS, Lincoln,1770
R:Country Dance
O:Lincoln
A:England
Z:vmp.Chris Partington
K:D
dcBA|GFED|cdBG|AEFD|cBdA|GFED|BcAd|FGED|BAcF|dEGD|ABFc|EdGD|AFBE|cGdD|FA
EB|GcdD|FEAG|BdcD|EFGA|dBcD|EGFd|AcBD|GEdF|cABD|GdEc|FBAD|BAGE|FcdD|dGcE
|BFAD|dcGB|EAFD|cdGE|BFAD|cGdB|EAFD|EdGc|FBAD|]
